dist/img/clients/client_6.svg

<svg width="143" height="34" viewBox="0 0 143 34" fill="none" xmlns="http://www.w3.org/2000/svg">
<g clip-path="url(#clip0_2986_18236)">
<path fill-rule="evenodd" clip-rule="evenodd" d="M43.353 8.1161H45.3639V11.5684L48.5457 8.1161H51.1483L47.3649 12.0266L51.3128 16.4891H48.5987L45.3639 12.6187V16.4891H43.353V8.1161ZM65.6858 10.254L63.3616 16.4891H61.0566L64.6904 8.1161H66.6814L70.3152 16.4891H68.0101L65.6858 10.254ZM56.1497 10.254L54.9911 13.3625H57.3085L56.1497 10.254ZM54.4197 14.8952L53.8256 16.4891H51.5205L55.1543 8.1161H57.1453L60.7791 16.4891H58.4741L57.8798 14.8952H54.4197ZM75.3486 10.254L74.19 13.3625H76.5075L75.3486 10.254ZM73.6186 14.8952L73.0245 16.4891H70.7194L74.3533 8.1161H76.3442L79.978 16.4891H77.673L77.0787 14.8952H73.6186ZM81.4849 8.1161H83.5628V14.8754H86.2998V8.1161H88.3777V14.8754H91.1147V8.1161H93.1926V16.4889H81.4849V8.1161ZM111.726 8.1161H113.804V16.4889H111.726V11.1689L108.383 16.4889H106.207V8.1161H108.285V13.8022L111.726 8.1161ZM97.9737 11.3867H101.414V8.1161H103.492V16.4889H101.414V13.0003H97.9737V16.4889H95.8958V8.1161H97.9737V11.3867ZM116.638 8.1161H118.649V11.5684L121.831 8.1161H124.434L120.65 12.0266L124.598 16.4891H121.884L118.649 12.6187V16.4891H116.638V8.1161ZM129.609 7.77045C132.219 7.77045 134.334 9.7999 134.334 12.3028C134.334 14.8049 132.219 16.8344 129.609 16.8344C127.001 16.8344 124.886 14.8049 124.886 12.3028C124.886 9.7999 127.001 7.77045 129.609 7.77045ZM129.61 9.6531C130.98 9.6531 132.09 10.8389 132.09 12.3026C132.09 13.7659 130.98 14.9519 129.61 14.9519C128.24 14.9519 127.13 13.7659 127.13 12.3026C127.13 10.8389 128.24 9.6531 129.61 9.6531ZM136.176 8.1161H140.505C141.653 8.1161 142.585 9.02385 142.585 10.1433C142.585 11.0606 141.958 11.8353 141.1 12.085C142.116 12.3128 142.874 13.1999 142.874 14.259C142.874 15.4901 141.849 16.4889 140.585 16.4889H136.176V8.1161ZM139.835 13.047C140.382 13.0468 140.826 13.4796 140.826 14.0127C140.826 14.546 140.382 14.9787 139.835 14.9785L138.254 14.9781V13.0476L139.835 13.047ZM139.683 9.72946C140.167 9.72946 140.558 10.1108 140.558 10.5819C140.558 11.0527 140.166 11.4343 139.683 11.4343L138.254 11.4341V9.72966L139.683 9.72946Z" fill="#1D1D1D"/>
<path fill-rule="evenodd" clip-rule="evenodd" d="M43.353 18.6942H45.3639V22.1465L48.5457 18.6942H51.1484L47.3649 22.6046L51.3128 27.0672H48.5987L45.3639 23.1967V27.0672H43.353V18.6942ZM101.965 21.9648H105.406V18.6942H107.484V27.067H105.406V23.5783H101.965V27.067H99.8871V18.6942H101.965V21.9648ZM91.6662 18.6942H95.5762C97.0586 18.6942 98.261 19.8657 98.261 21.31C98.261 22.7543 97.0584 23.9258 95.5762 23.9258H93.7441V27.067H91.6662V18.6942ZM93.7441 20.3077V22.3123L95.1601 22.3125C95.7284 22.3125 96.1892 21.8635 96.1892 21.3098C96.1892 20.7565 95.7282 20.3075 95.1601 20.3075L93.7441 20.3077ZM89.3119 18.6942V20.3077H85.5211V21.9648H89.1373V23.5783H85.5211V25.3446H89.4487V27.067H83.4432V18.6942H89.3119ZM73.1108 27.067V18.6942H75.1887V25.4534H78.6294V18.6942H80.7073V25.4534H81.6201V28.9631H79.8261V27.067H73.1108ZM64.989 21.9648H68.4297V18.6942H70.5076V27.067H68.4297V23.5783H64.989V27.067H62.9111V18.6942H64.989V21.9648ZM56.3404 18.3487C58.9497 18.3487 61.065 20.3782 61.065 22.8811C61.065 25.3832 58.9497 27.4127 56.3404 27.4127C53.7321 27.4127 51.6169 25.3832 51.6169 22.8811C51.6169 20.3782 53.7321 18.3487 56.3404 18.3487ZM56.3408 20.2314C57.7109 20.2314 58.8211 21.4172 58.8211 22.8809C58.8211 24.3442 57.7109 25.5302 56.3408 25.5302C54.9712 25.5302 53.8608 24.3442 53.8608 22.8809C53.8608 21.4172 54.9712 20.2314 56.3408 20.2314Z" fill="#1D1D1D"/>
<path fill-rule="evenodd" clip-rule="evenodd" d="M6.37891 6.21512H28.5872L17.4831 17.0347L28.5872 27.8543H6.37891V6.21512Z" fill="#6B6B6B"/>
<path fill-rule="evenodd" clip-rule="evenodd" d="M0 0H34.9679L26.2715 8.47142H8.6943V25.5984H26.2715L34.9679 34.0694H0V0Z" fill="#1D1D1D"/>
</g>
<defs>
<clipPath id="clip0_2986_18236">
<rect width="143" height="34" fill="white"/>
</clipPath>
</defs>
</svg>

<svg width="143" height="34" viewBox="0 0 143 34" fill="none" xmlns="http://www.w3.org/2000/svg"><g clip-path="url(#clip0_2986_18236)" fill-rule="evenodd" clip-rule="evenodd"><path d="M43.353 8.116h2.01v3.452l3.183-3.452h2.602l-3.783 3.91 3.948 4.463h-2.714l-3.235-3.87v3.87h-2.011V8.116zm22.333 2.138l-2.324 6.235h-2.305l3.633-8.373h1.991l3.634 8.373H68.01l-2.324-6.235zm-9.536 0l-1.159 3.109h2.318l-1.16-3.109zm-1.73 4.641l-.594 1.594H51.52l3.634-8.373h1.991l3.634 8.373h-2.305l-.594-1.594h-3.46zm20.929-4.641l-1.159 3.109h2.317l-1.158-3.109zm-1.73 4.641l-.594 1.594h-2.306l3.634-8.373h1.991l3.634 8.373h-2.305l-.594-1.594h-3.46zm7.866-6.779h2.078v6.76H86.3v-6.76h2.078v6.76h2.737v-6.76h2.078v8.373H81.485V8.116zm30.241 0h2.078v8.373h-2.078v-5.32l-3.343 5.32h-2.176V8.116h2.078v5.686l3.441-5.686zm-13.752 3.27h3.44v-3.27h2.078v8.373h-2.078V13h-3.44v3.489h-2.078V8.116h2.078v3.27zm18.664-3.27h2.011v3.452l3.182-3.452h2.603l-3.784 3.91 3.948 4.463h-2.714l-3.235-3.87v3.87h-2.011V8.116zm12.971-.346c2.61 0 4.725 2.03 4.725 4.533 0 2.502-2.115 4.531-4.725 4.531-2.608 0-4.723-2.03-4.723-4.531 0-2.503 2.115-4.533 4.723-4.533zm.001 1.883c1.37 0 2.48 1.186 2.48 2.65 0 1.463-1.11 2.649-2.48 2.649-1.37 0-2.48-1.186-2.48-2.65 0-1.463 1.11-2.649 2.48-2.649zm6.566-1.537h4.329c1.148 0 2.08.908 2.08 2.027 0 .918-.627 1.692-1.485 1.942 1.016.228 1.774 1.115 1.774 2.174 0 1.231-1.025 2.23-2.289 2.23h-4.409V8.116zm3.659 4.931a.98.98 0 01.991.966.979.979 0 01-.991.966h-1.581v-1.931l1.581-.001zm-.152-3.318c.484 0 .875.382.875.853 0 .47-.392.852-.875.852h-1.429V9.73h1.429zm-96.33 8.965h2.01v3.453l3.183-3.453h2.602l-3.783 3.91 3.948 4.463h-2.714l-3.235-3.87v3.87h-2.011v-8.373zm58.612 3.27h3.441v-3.27h2.078v8.373h-2.078v-3.489h-3.441v3.489h-2.078v-8.373h2.078v3.27zm-10.299-3.27h3.91c1.483 0 2.685 1.172 2.685 2.616 0 1.444-1.203 2.616-2.685 2.616h-1.832v3.141h-2.078v-8.373zm2.078 1.614v2.004h1.416c.568 0 1.03-.449 1.03-1.002 0-.553-.462-1.002-1.03-1.002h-1.416zm-4.432-1.614v1.614h-3.79v1.657h3.615v1.613h-3.616v1.767h3.928v1.722h-6.006v-8.373h5.869zM73.11 27.067v-8.373h2.078v6.76h3.44v-6.76h2.078v6.76h.913v3.51h-1.794v-1.897H73.11zm-8.122-5.102h3.44v-3.27h2.079v8.372H68.43v-3.489h-3.441v3.489h-2.078v-8.373h2.078v3.27zm-8.649-3.616c2.61 0 4.725 2.03 4.725 4.532 0 2.502-2.115 4.532-4.725 4.532-2.608 0-4.723-2.03-4.723-4.532 0-2.503 2.115-4.532 4.723-4.532zm0 1.882c1.37 0 2.481 1.186 2.481 2.65 0 1.463-1.11 2.65-2.48 2.65-1.37 0-2.48-1.187-2.48-2.65 0-1.464 1.11-2.65 2.48-2.65z" fill="#1D1D1D"/><path d="M6.379 6.215h22.208l-11.104 10.82 11.104 10.82H6.38V6.214z" fill="#6B6B6B"/><path d="M0 0h34.968L26.27 8.471H8.694v17.127h17.578l8.696 8.471H0V0z" fill="#1D1D1D"/></g><defs><clipPath id="clip0_2986_18236"><path fill="#fff" d="M0 0h143v34H0z"/></clipPath></defs></svg>
